X:1
T:Buna dimineata la Mos Ajun
L:1/8
Q:1/4=108
M:2/4
K:C
V:1 treble+8 nm="Recorder" snm="Rec."
V:1
|:"^A" CC CC | A3 G/F/ | E2 D2 | C2 z F | EG DE | F2 z F | EG DE | .F>F .G>G | A4- | A2 z2 :| %10
w: Bu- nă di- mi-|nea- ța la|Moș A-|jun! Ne|dați ori nu ne|dați? Ne|dați ori nu ne|dați? Ne dați, ne|dați?||
 GG GA | GF EF | GG GA | GF EF | GG GA | GF EF | GG GA | GF ED | CC CC | A3 G/F/ | E2 D2 | C2 z F | %22
w: Am ve- nit și|noi o da- tă,|La un an cu|să- nă- ta- te,|Dom- nul sfânt să|ne a- ju- te|La co- vrigi și|la nuci- mul- te|Bu- nă di- mi-|nea- ța la|Moș A-|jun! Ne|
 EG DE | F2 z F | EG DE | .F>F .G>G | A4- | A2 z2 |:"^B" GG GG | e3 d/c/ | B2 A2 | G2 z c | Bd AB | %33
w: dați ori nu ne|dați? Ne|dați ori nu ne|dați? Ne dați, ne|dați?||Bu- nă di- mi-|nea- ța la|Moș A-|jun! Ne|dați ori nu ne|
 c2 z c | Bd AB | .c>c .d>d | e4- | e2 z2 :| dd de | dc Bc | dd de | dc Bc | dd de | dc Bc | %44
w: dați? Ne|dați ori nu ne|dați? Ne dați, ne|dați?||Am ve- nit și|noi o da tă,|La un an cu|să nă ta te,|Dom- nul sfânt să|ne a- ju- te|
 dd de | dc BA | GG GF | e3 d/c/ | B2 A2 | G2 z c | Bd AB | c2 z c | Bd AB | .c>c .d>d | e4- | %55
w: La co- vrigi și|la nuci- mul- te|Bu- nă di- mi-|nea- ța la|Moș A-|jun! Ne|dați ori nu ne|dați? Ne|dați ori nu ne|dați? Ne dați, ne|dați?|
 e2 z2 | z4 | z4 |] %58
w: |||

